build/category/DiamondOutline.svg

<svg xmlns="http://www.w3.org/2000/svg" fill="none" viewBox="0 0 24 24" focusable="false"><path d="M0 0H24V24H0z"/><path fill="#74767B" fill-rule="evenodd" d="M6.58366 4.44407C6.83052 4.16187 7.18719 4 7.56212 4L16.4193 4C16.7934 4 17.1492 4.16108 17.3961 4.44208L21.2443 8.82321C21.6763 9.31505 21.6752 10.0514 21.2417 10.542L12.9743 19.8976C12.4568 20.4832 11.5434 20.4832 11.026 19.8976L2.75701 10.5402C2.32418 10.0504 2.32234 9.3154 2.75269 8.82344L6.58366 4.44407ZM12.0128 5.3L12.0251 5.3L14.8539 8.98642L9.18399 8.98642L12.0128 5.3ZM10.3741 5.3L7.56212 5.3L4.33733 8.98642L7.54536 8.98642L10.3741 5.3ZM7.62026 10.2864L4.26759 10.2864L9.836 16.5878L7.62026 10.2864ZM12.019 18.8769L15.0396 10.2864L8.99829 10.2864L12.019 18.8769ZM16.4925 8.98642L13.6638 5.3L16.4193 5.3L19.6574 8.98642L16.4925 8.98642ZM16.4176 10.2864L14.2268 16.5171L19.7327 10.2864L16.4176 10.2864Z"/></svg>

<svg xmlns="http://www.w3.org/2000/svg" fill="none" viewBox="0 0 24 24" focusable="false"><path fill="#74767B" fill-rule="evenodd" d="M6.58 4.44c.25-.28.6-.44.98-.44h8.85c.38 0 .73.16.98.44l3.85 4.38c.43.49.43 1.23 0 1.72l-8.27 9.35c-.52.59-1.43.59-1.95 0l-8.27-9.35c-.43-.49-.43-1.23 0-1.72zm5.43.85h.01l2.83 3.69H9.18zm-1.64 0H7.56L4.33 8.98h3.21zm-2.75 4.99H4.26l5.57 6.3zm4.39 8.59 3.02-8.59H8.99zm4.48-9.89-2.83-3.69h2.75l3.24 3.69zm-.08 1.3-2.19 6.23 5.51-6.23z"/></svg>
